X:1
T:Title
%%score ( 1 2 ) 3
L:1/8
Q:1/4=103
M:3/4
K:Bb
V:1 treble nm="Grand Piano, Soprano"
V:2 treble 
V:3 bass nm="Choir Pad, How Can I but Love Him?"
V:1
 [DF]2 [Fd]3 [Ec] | [Ge][Fd] [Gc]2 [GB]2 | [EG]2 F3 G | [B,D]>[CE] [DF]4 | [DB]2 B3 c | %5
w: By~Edmund~Simon~Lorenz * *|||||
 [CA][DB] [Ec]2 [EF]2 | [Ec]2 [Ge]2 [Fd]2 | [Ec]2 [DB]4 | [DB]2 [GB]4 | [FA][EG] [DF]2 [B,D]2 | %10
w: |||||
 z [DF] [EF]2 [Ec]2 | z [EF] [DF]2 [Fd]2 | [DB]2 [GB]4 | [FA][EG] [DF]2 [B,D]2 | %14
w: ||||
 [DF]2 [EF]2 [Ec]2 | [EA]2 [DB]4- | [DB]4 z2 |] %17
w: |||
V:2
 x6 | x6 | z2 D4 | x6 | z2 E4 | x6 | x6 | x6 | x6 | x6 | x6 | x6 | x6 | x6 | x6 | x6 | x6 |] %17
V:3
 [B,,B,]2 [B,,B,]4 | [B,,B,][B,,B,] [E,B,]2 [E,B,]2 | [E,B,]2 [B,,B,]4 | [B,,F,]>[B,,F,] [B,,B,]4 | %4
 [B,,B,]2 [F,C]4 | [F,C][F,B,] [F,A,]2 [F,A,]2 | [F,A,]2 [F,A,]2 [F,A,]2 | F,2 [B,,F,]4 | %8
 [B,,B,]2 [E,B,]4 | [E,B,][E,B,] [B,,B,]2 [B,,F,]2 | z [B,,B,] [F,A,]2 [F,A,]2 | %11
 z [F,A,] [B,,B,]2 [B,,B,]2 | [B,,B,]2 [E,B,]4 | [E,B,][E,B,] [B,,B,]2 [B,,F,]2 | %14
 [B,,B,]2 [F,A,]2 [F,A,]2 | [F,C]2 [B,,B,]4- | [B,,B,]4 z2 |] %17

